X:1
T:The Kerry Recruit
M:6/8
L:1/8
K:G
 D/2D/2| DGG GFG| ABA G2 G/2F/2| EEE ABG| FGE D2d/2-c/2| BBB d2 d/2c/2|\
 BBB d2 d/2c/2| BBB dcB| A3/2 B/2 A AGA| BBB B2 A| GAG E3| Ddd d2 c|\
 B3/2 c/2 A G2 z|
